X: 1
T: The Blackbird Hornpipe
R: hornpipe
O: Irish Horrnpipe
M: 2/2
L: 1/8
Q: 1/2=80
K: Gmaj
|:AG|"D"F2 FA GF D2|"D"de fd "F#m"dc AF|"G"G2 "Em"GF "G"GF DE|"C"Fd "Am"AF "Em"G2 DE|
"D"F2 FA GF D2|"D"de fd "F#m"d^c AG|"Am"Ad =cA "G"GB AG|"G"F2 "C"D2 "D"D2:|
|:fg|"D"ag fa "Em"gf eg|"F#m"fd e^c "D"d=c A2|"D"ag fa "Em"gf de|"D"fd "G"gf "Am"e2 fg|
"D"a2 ge "C"f3 e|"F#m"d^c de "D"fd AG|"A"Ad =cA "G"GcAG|"G"F2 "C"D2 "D"D2:|